svg/u1f99f.svg

<svg viewBox="0 0 128 128" xmlns="http://www.w3.org/2000/svg">
  <path d="M74.72,52.66c0,0-2.82-2.26-5.23-3.37c-1.57-0.72-4.22-2.67-6.44-1.36 c-1.08,0.64-1.91,1.91-2.41,4.12c-0.5,2.21-0.91,4.73-0.91,4.73s-3.47-5.58-6.24-4.83c-2.52,0.69-3.02,8.55-3.02,8.55 s-4.73-6.79-6.94-5.98c-2.21,0.8-3.42,5.78-4.43,12.42c-0.71,4.7-3.22,30.17-3.82,31.08s-12.27,12.17-12.87,12.67 s-1.97,1.67-0.75,3.07c1.01,1.16,2.77-0.05,3.57-0.85c0.8-0.8,13.13-12.53,13.58-13.38c0.8-1.51,3.72-28.16,4.02-30.07 s1.51-8.55,2.16-8.7c0.85-0.2,5.48,5.98,5.48,5.98l3.72-2.21c0,0,0.37-6.95,1.06-7.09c0.75-0.15,3.47,5.38,3.47,5.38L74.72,52.66z" fill="#848484"/>
  <path d="M36.4,67.95c0,0-2.97,2.11-15.49,3.07c-4.52,0.34-10.51-1.21-13.58-2.36 c-2.38-0.9-3.02-2.01-3.02-2.01s0.45-2.11-1.16-2.11c-1.77,0-1.56,2.31-0.8,3.27c0.75,0.96,2.77,2.64,5.98,3.67 c3.62,1.16,7.9,1.84,12.87,1.61c8.8-0.4,14.63-2.67,14.63-2.67L36.4,67.95z" fill="#848484"/>
  <path d="M60.44,59.7c0,0,1.46-5.18,5.23-7.14c3.77-1.96,12.82-3.92,18.71-5.13s22.18-3.87,28.06-4.22 c8.45-0.5,9.94,1.35,10.21,3.32c0.25,1.81-1.46,6.03-9.2,8.45c-6.56,2.04-27.27,7.35-30.67,8.15c-2.78,0.65-7.08,1.73-10.26,1.61 c-3.18-0.13-5.09,1.16-4.73,1.01l-1.51,1.61l-4.22,4.07l-1.66,3.02l-3.32,0.3l-3.32-4.22l-1.66,3.62l-1.71-0.15 c0,0-0.35,3.57-4.17,5.58c-3.07,1.61-6.34,0.85-6.34,0.85s-5.93,4.53-8.9,6.54c-2.53,1.71-7.54,4.98-8.45,6.19s-3.5,8.1-4.43,10.61 c-1.16,3.12-2.36,6.39-4.48,5.53c-2.41-0.98-1.27-4.09,0.35-8.95c2.16-6.49,3.07-9.66,5.33-11.62C21.57,86.75,35.5,77,35.5,77 s-3.32-8.75,2.87-11.77c5.7-2.78,9.2,0.4,9.2,0.4s0.45-4.63,4.98-5.83S60.44,59.7,60.44,59.7z" fill="#5E6467"/>
  <radialGradient id="SVGID_1_" cx="85.6768" cy="57.1157" fx="53.4573" fy="61.3827" gradientTransform="matrix(0.9962 -0.0872 0.0488 0.558 -2.4623 32.7128)" gradientUnits="userSpaceOnUse" r="32.5009">
    <stop offset="5.280447e-03" stop-color="#745963" stop-opacity="0"/>
    <stop offset="0.3639" stop-color="#894B51" stop-opacity="0.3605"/>
    <stop offset="1" stop-color="#AA3535"/>
  </radialGradient>
  <path d="M66,57.97c-0.22,2.33,0.8,5.43,10.46,3.62c10.61-1.99,32.04-7.29,35.6-8.25 c4.95-1.33,9.47-4.55,8.67-6.87c-0.8-2.31-8.85-1.86-20.64,0.13c-10.72,1.81-20.92,4.02-24.64,5.03C71.73,52.64,66.4,53.64,66,57.97 z" fill="url(#SVGID_1_)"/>
  <path d="M36.95,71.32c0.77,1.25-1.86,2.16-4.53,3.02s-10.61,3.37-19.11,3.22c-6.46-0.11-9.66-2.31-10.86-3.22 s-3.19-3.39-1.31-4.22c1.81-0.8,1.96,2.26,1.96,2.26s2.56,2.87,10.01,3.12s18.15-2.67,20.16-3.47 C35.29,71.22,36.55,70.66,36.95,71.32z" fill="#848484"/>
  <path d="M47.36,75.44c-0.9,2.02-3.14,2.59-5.1,1.72s-2.6-2.68-2.09-4.83c0.49-2.1,3.3-3.47,5.58-2.51 C48.17,70.81,48.26,73.42,47.36,75.44z" fill="#020204"/>
  <path d="M60.44,59.7c0,0-0.65-0.5-0.28-1.94c0.38-1.43,5.96-8.3,10.18-13.05 s20.29-21.87,22.48-23.84c2.19-1.96,6.86-6.64,9.28-4.53c2.01,1.76,0.3,5.05-0.6,6.49s-2.87,4.07-2.87,4.07L60.44,59.7z" fill="#77A8AF" fill-opacity="0.65"/>
  <path d="M66.65,65.31c0,0,7.92-5.28,11.99-8.9c4.07-3.62,25.39-21.62,27.21-23.36 c1.81-1.73,6.29-6.81,4.17-9.38s-6.86,0.55-9.15,1.84c-1.95,1.09-2.31,1.48-2.31,1.48L60.44,59.7c0,0,3.03,1.24,4.02,2.29 C65.74,63.35,66.65,65.31,66.65,65.31z" fill="#5A8D91" fill-opacity="0.65"/>
  <path d="M46.51,100.83c-0.68,1.43-6.49,6.94-8.6,8.9c-2.11,1.96-6.79,6.34-7.54,6.94 c-0.75,0.6-1.97,1.93-0.6,3.17c1.11,1.01,3.07-0.48,3.85-1.21c1.06-0.98,4.75-4.15,7.77-6.94c2.59-2.39,8.3-8.15,8.75-9.2 c0.45-1.06,4.41-29.22,5.13-29.04c0.3,0.08,1,2.86,1.28,3.7c0.53,1.58,1.53,1.89,2.29,1.61c1.07-0.39,1.06-1.86,1.06-1.86 s0.15,1.14,1.41,1.38c1.58,0.3,1.91-0.73,2.19-2.04c0.53-2.49,0.68-4.45,1.28-4.45s0.75,4.45,1.13,8.67 c0.38,4.22,1.13,14.86,1.81,15.54c0.68,0.68,6.3,7.65,9.81,11.39c3.47,3.7,9.96,10.48,10.79,11.24c0.83,0.75,2.49,1.36,3.09,0.75 s0.15-2.04-0.98-3.32c-0.96-1.09-8.07-9.5-10.11-11.69c-2.04-2.19-8.75-9.66-9.2-10.56c-0.45-0.91-2.41-24.36-2.41-24.36 s4.75-6.79,5.51-6.79c0.75,0,9.13,9.35,11.31,12.14c2.19,2.79,11.09,14.03,11.99,14.41s9.92,4.48,13.95,6.34 c5.58,2.56,12.67,5.66,13.43,5.96c0.75,0.3,1.83,0.12,2.19-0.53c0.38-0.68,0.08-1.89-2.26-3.02c-1.43-0.69-12.07-6.11-13.8-7.01 c-1.73-0.91-10.18-4.6-10.86-5.05c-0.68-0.45-9.88-11.24-12.22-14.33c-2.34-3.09-10.71-12.3-11.31-12.9 c-0.6-0.6-1.28-1.89-2.79-1.66c-1.35,0.2-2.59,2.19-3.86,3.76c-1.97,2.44-3.61,5.06-3.61,5.06s-1.43-1.28-3.39-0.38 c-1.96,0.91-3.24,8.15-3.24,8.15s-1.5-3.7-1.89-4.45c-0.98-1.89-2.19-3.09-3.85-2.49c-1.66,0.6-2.41,2.72-2.94,5.66 C50.51,75.26,47.19,99.4,46.51,100.83z" fill="#848484"/>
</svg>

<svg viewBox="0 0 128 128" xmlns="http://www.w3.org/2000/svg">
  <defs>
    <radialGradient id="SVGID_1_" cx="80.373885" cy="114.91209" fx="48.154385" fy="119.17909" gradientTransform="matrix(0.9962 -0.0872 0.0488 0.558 0 0)" gradientUnits="userSpaceOnUse" r="32.5009">
      <stop offset="5.280447e-03" stop-color="#745963" stop-opacity="0"/>
      <stop offset="0.3639" stop-color="#894B51" stop-opacity="0.3605"/>
      <stop offset="1" stop-color="#AA3535"/>
    </radialGradient>
  </defs>
  <path d="M74.72,52.66 C74.72,52.66 71.9,50.4 69.49,49.29 C67.92,48.57 65.27,46.62 63.05,47.93 C61.97,48.57 61.14,49.84 60.64,52.05 C60.14,54.26 59.73,56.78 59.73,56.78 C59.73,56.78 56.26,51.2 53.49,51.95 C50.97,52.64 50.47,60.5 50.47,60.5 C50.47,60.5 45.74,53.71 43.53,54.52 C41.32,55.32 40.11,60.3 39.1,66.94 C38.39,71.64 35.88,97.11 35.28,98.02 C34.68,98.93 23.01,110.19 22.41,110.69 C21.81,111.19 20.44,112.36 21.66,113.76 C22.67,114.92 24.43,113.71 25.23,112.91 C26.03,112.11 38.36,100.38 38.81,99.53 C39.61,98.02 42.53,71.37 42.83,69.46 C43.13,67.55 44.34,60.91 44.99,60.76 C45.84,60.56 50.47,66.74 50.47,66.74 L54.19,64.53 C54.19,64.53 54.56,57.58 55.25,57.44 C56,57.29 58.72,62.82 58.72,62.82 L74.72,52.66 Z" fill="#848484"/>
  <path d="M36.4,67.95 C36.4,67.95 33.43,70.06 20.91,71.02 C16.39,71.36 10.4,69.81 7.33,68.66 C4.95,67.76 4.31,66.65 4.31,66.65 C4.31,66.65 4.76,64.54 3.15,64.54 C1.38,64.54 1.59,66.85 2.35,67.81 C3.1,68.77 5.12,70.45 8.33,71.48 C11.95,72.64 16.23,73.32 21.2,73.09 C30,72.69 35.83,70.42 35.83,70.42 L36.4,67.95 Z" fill="#848484"/>
  <path d="M60.44,59.7 C60.44,59.7 61.9,54.52 65.67,52.56 C69.44,50.6 78.49,48.64 84.38,47.43 C90.27,46.22 106.56,43.56 112.44,43.21 C120.89,42.71 122.38,44.56 122.65,46.53 C122.9,48.34 121.19,52.56 113.45,54.98 C106.89,57.02 86.18,62.33 82.78,63.13 C80,63.78 75.7,64.86 72.52,64.74 C69.34,64.61 67.43,65.9 67.79,65.75 L66.28,67.36 L62.06,71.43 L60.4,74.45 L57.08,74.75 L53.76,70.53 L52.1,74.15 L50.39,74 C50.39,74 50.04,77.57 46.22,79.58 C43.15,81.19 39.88,80.43 39.88,80.43 C39.88,80.43 33.95,84.96 30.98,86.97 C28.45,88.68 23.44,91.95 22.53,93.16 C21.62,94.37 19.03,101.26 18.1,103.77 C16.94,106.89 15.74,110.16 13.62,109.3 C11.21,108.32 12.35,105.21 13.97,100.35 C16.13,93.86 17.04,90.69 19.3,88.73 C21.57,86.75 35.5,77 35.5,77 C35.5,77 32.18,68.25 38.37,65.23 C44.07,62.45 47.57,65.63 47.57,65.63 C47.57,65.63 48.02,61 52.55,59.8 C57.08,58.6 60.44,59.7 60.44,59.7 Z" fill="#5E6467"/>
  <path d="M66,57.97 C65.78,60.3 66.8,63.4 76.46,61.59 C87.07,59.6 108.5,54.3 112.06,53.34 C117.01,52.01 121.53,48.79 120.73,46.47 C119.93,44.16 111.88,44.61 100.09,46.6 C89.37,48.41 79.17,50.62 75.45,51.63 C71.73,52.64 66.4,53.64 66,57.97 Z" fill="url(#SVGID_1_)"/>
  <path d="M36.95,71.32 C37.72,72.57 35.09,73.48 32.42,74.34 C29.75,75.2 21.81,77.71 13.31,77.56 C6.85,77.45 3.65,75.25 2.45,74.34 C1.25,73.43 -0.74,70.95 1.14,70.12 C2.95,69.32 3.1,72.38 3.1,72.38 C3.1,72.38 5.66,75.25 13.11,75.5 C20.56,75.75 31.26,72.83 33.27,72.03 C35.29,71.22 36.55,70.66 36.95,71.32 Z" fill="#848484"/>
  <path d="M47.36,75.44 C46.46,77.46 44.22,78.03 42.26,77.16 C40.3,76.29 39.66,74.48 40.17,72.33 C40.66,70.23 43.47,68.86 45.75,69.82 C48.17,70.81 48.26,73.42 47.36,75.44 Z" fill="#020204"/>
  <path d="M60.44,59.7 C60.44,59.7 59.79,59.2 60.16,57.76 C60.54,56.33 66.12,49.46 70.34,44.71 C74.56,39.96 90.63,22.84 92.82,20.87 C95.01,18.91 99.68,14.23 102.1,16.34 C104.11,18.1 102.4,21.39 101.5,22.83 C100.6,24.27 98.63,26.9 98.63,26.9 L60.44,59.7 Z" fill="#77A8AF" opacity="0.65"/>
  <path d="M66.65,65.31 C66.65,65.31 74.57,60.03 78.64,56.41 C82.71,52.79 104.03,34.79 105.85,33.05 C107.66,31.32 112.14,26.24 110.02,23.67 C107.9,21.1 103.16,24.22 100.87,25.51 C98.92,26.6 98.56,26.99 98.56,26.99 L60.44,59.7 C60.44,59.7 63.47,60.94 64.46,61.99 C65.74,63.35 66.65,65.31 66.65,65.31 Z" fill="#5A8D91" opacity="0.65"/>
  <path d="M46.51,100.83 C45.83,102.26 40.02,107.77 37.91,109.73 C35.8,111.69 31.12,116.07 30.37,116.67 C29.62,117.27 28.4,118.6 29.77,119.84 C30.88,120.85 32.84,119.36 33.62,118.63 C34.68,117.65 38.37,114.48 41.39,111.69 C43.98,109.3 49.69,103.54 50.14,102.49 C50.59,101.43 54.55,73.27 55.27,73.45 C55.57,73.53 56.27,76.31 56.55,77.15 C57.08,78.73 58.08,79.04 58.84,78.76 C59.91,78.37 59.9,76.9 59.9,76.9 C59.9,76.9 60.05,78.04 61.31,78.28 C62.89,78.58 63.22,77.55 63.5,76.24 C64.03,73.75 64.18,71.79 64.78,71.79 C65.38,71.79 65.53,76.24 65.91,80.46 C66.29,84.68 67.04,95.32 67.72,96 C68.4,96.68 74.02,103.65 77.53,107.39 C81,111.09 87.49,117.87 88.32,118.63 C89.15,119.38 90.81,119.99 91.41,119.38 C92.01,118.77 91.56,117.34 90.43,116.06 C89.47,114.97 82.36,106.56 80.32,104.37 C78.28,102.18 71.57,94.71 71.12,93.81 C70.67,92.9 68.71,69.45 68.71,69.45 C68.71,69.45 73.46,62.66 74.22,62.66 C74.97,62.66 83.35,72.01 85.53,74.8 C87.72,77.59 96.62,88.83 97.52,89.21 C98.42,89.59 107.44,93.69 111.47,95.55 C117.05,98.11 124.14,101.21 124.9,101.51 C125.65,101.81 126.73,101.63 127.09,100.98 C127.47,100.3 127.17,99.09 124.83,97.96 C123.4,97.27 112.76,91.85 111.03,90.95 C109.3,90.04 100.85,86.35 100.17,85.9 C99.49,85.45 90.29,74.66 87.95,71.57 C85.61,68.48 77.24,59.27 76.64,58.67 C76.04,58.07 75.36,56.78 73.85,57.01 C72.5,57.21 71.26,59.2 69.99,60.77 C68.02,63.21 66.38,65.83 66.38,65.83 C66.38,65.83 64.95,64.55 62.99,65.45 C61.03,66.36 59.75,73.6 59.75,73.6 C59.75,73.6 58.25,69.9 57.86,69.15 C56.88,67.26 55.67,66.06 54.01,66.66 C52.35,67.26 51.6,69.38 51.07,72.32 C50.51,75.26 47.19,99.4 46.51,100.83 Z" fill="#848484"/>
</svg>
